lib/assets/icons/svg/outlined-action-schedule.svg

<svg viewBox="0 0 24 24" xmlns="http://www.w3.org/2000/svg">
  <path  d="M 8.075 15.385 C 8.528 15.401 8.882 15.782 8.865 16.235 L 8.865 16.305 C 8.849 16.758 8.468 17.112 8.015 17.095 L 7.945 17.095 C 7.49 17.073 7.138 16.69 7.155 16.235 L 7.155 16.175 C 7.171 15.718 7.558 15.362 8.015 15.385 Z M 8.795 9.935 L 8.395 10.205 L 8.745 10.565 L 8.805 10.615 C 8.888 10.734 8.861 10.898 8.745 10.985 L 8.745 11.045 C 8.626 11.128 8.462 11.101 8.375 10.985 L 8.015 10.635 L 7.655 10.985 L 7.655 11.045 C 7.536 11.128 7.372 11.101 7.285 10.985 L 7.225 10.985 C 7.136 10.867 7.164 10.699 7.285 10.615 L 7.635 10.255 L 7.285 9.895 L 7.225 9.845 C 7.142 9.726 7.169 9.562 7.285 9.475 L 7.285 9.415 C 7.403 9.326 7.571 9.354 7.655 9.475 L 8.015 9.825 L 8.375 9.475 C 8.515 9.325 8.725 9.325 8.795 9.475 C 8.945 9.545 8.945 9.755 8.795 9.935 Z M 8.795 12.935 L 8.395 13.245 L 8.745 13.605 L 8.805 13.655 C 8.889 13.778 8.863 13.944 8.745 14.035 L 8.745 14.085 C 8.628 14.17 8.465 14.148 8.375 14.035 L 8.015 13.675 L 7.655 14.035 L 7.655 14.085 C 7.538 14.17 7.375 14.148 7.285 14.035 L 7.225 13.975 C 7.136 13.857 7.164 13.689 7.285 13.605 L 7.635 13.245 L 7.225 12.835 C 7.142 12.716 7.169 12.552 7.285 12.465 L 7.285 12.405 C 7.404 12.322 7.568 12.349 7.655 12.465 L 8.015 12.815 L 8.375 12.465 L 8.425 12.405 C 8.544 12.322 8.708 12.349 8.795 12.465 C 8.945 12.535 8.945 12.745 8.795 12.935 Z M 11.675 10.635 L 11.265 11.045 C 11.146 11.128 10.982 11.101 10.895 10.985 L 10.845 10.985 C 10.754 10.87 10.777 10.702 10.895 10.615 L 11.245 10.255 L 10.895 9.895 L 10.845 9.845 C 10.754 9.73 10.777 9.562 10.895 9.475 L 10.945 9.415 C 11.071 9.317 11.253 9.345 11.345 9.475 L 11.695 9.825 L 12.055 9.475 L 12.055 9.415 C 12.178 9.331 12.344 9.357 12.435 9.475 L 12.435 9.525 C 12.533 9.629 12.533 9.791 12.435 9.895 L 12.075 10.255 L 12.505 10.615 L 12.505 10.665 C 12.603 10.769 12.603 10.931 12.505 11.035 L 12.445 11.095 C 12.326 11.178 12.162 11.151 12.075 11.035 Z M 11.225 18.435 C 11.325 18.612 11.325 18.828 11.225 19.005 C 11.125 19.187 10.933 19.298 10.725 19.295 L 5.875 19.295 C 4.58 19.279 3.536 18.23 3.525 16.935 L 3.525 7.685 C 3.547 6.409 4.599 5.393 5.875 5.415 L 6.215 5.415 C 6.316 5.4 6.387 5.307 6.375 5.205 L 6.375 4.485 C 6.414 3.99 6.81 3.598 7.305 3.565 L 9.085 3.565 C 9.589 3.576 9.994 3.981 10.005 4.485 L 10.005 5.255 C 10.025 5.358 10.121 5.427 10.225 5.415 L 12.625 5.415 C 12.729 5.405 12.803 5.308 12.785 5.205 L 12.785 4.485 C 12.818 3.973 13.207 3.555 13.715 3.485 L 15.455 3.485 C 15.962 3.496 16.37 3.907 16.375 4.415 L 16.375 5.175 C 16.39 5.281 16.49 5.353 16.595 5.335 L 16.945 5.335 C 18.238 5.346 19.284 6.392 19.295 7.685 L 19.295 10.685 C 19.291 10.888 19.186 11.075 19.015 11.185 C 18.831 11.255 18.629 11.255 18.445 11.185 C 18.274 11.074 18.167 10.888 18.155 10.685 L 18.155 7.685 C 18.139 7.023 17.607 6.491 16.945 6.475 L 5.875 6.475 C 5.216 6.496 4.686 7.026 4.665 7.685 L 4.665 16.935 C 4.675 17.602 5.208 18.144 5.875 18.165 L 10.725 18.165 C 10.922 18.181 11.103 18.279 11.225 18.435 Z M 7.515 5.335 L 8.865 5.335 L 8.865 4.765 C 8.865 4.695 8.865 4.695 8.795 4.695 L 7.585 4.695 C 7.515 4.695 7.515 4.695 7.515 4.765 Z M 13.945 5.335 L 15.275 5.335 L 15.275 4.765 C 15.275 4.695 15.275 4.695 15.205 4.695 L 13.995 4.695 C 13.925 4.695 13.925 4.695 13.925 4.765 L 13.925 5.415 Z M 20.475 15.935 C 20.479 16.752 20.262 17.556 19.849 18.261 C 18.074 21.289 13.686 21.26 11.951 18.209 C 10.216 15.157 12.435 11.372 15.945 11.395 C 18.437 11.427 20.448 13.443 20.475 15.935 Z M 15.945 12.535 C 15.328 12.53 14.721 12.691 14.188 13.003 C 11.916 14.333 11.935 17.623 14.222 18.927 C 16.51 20.23 19.35 18.568 19.335 15.935 C 19.303 14.074 17.805 12.572 15.945 12.535 Z M 18.095 17.295 C 18.244 17.456 18.244 17.704 18.095 17.865 C 17.931 18.005 17.689 18.005 17.525 17.865 L 15.675 16.015 L 15.675 13.625 C 15.686 13.437 15.847 13.294 16.035 13.305 C 16.222 13.316 16.362 13.479 16.345 13.665 L 16.345 15.665 Z"/>
</svg>

<svg xmlns="http://www.w3.org/2000/svg" viewBox="0 0 24 24"><path d="M8.075 15.385a.82.82 0 0 1 .79.85v.07a.82.82 0 0 1-.85.79h-.07a.83.83 0 0 1-.79-.86v-.06a.82.82 0 0 1 .86-.79zm.72-5.45l-.4.27.35.36.06.05a.27.27 0 0 1-.06.37v.06a.27.27 0 0 1-.37-.06l-.36-.35-.36.35v.06a.27.27 0 0 1-.37-.06h-.06a.26.26 0 0 1 .06-.37l.35-.36-.35-.36-.06-.05a.27.27 0 0 1 .06-.37v-.06a.26.26 0 0 1 .37.06l.36.35.36-.35c.14-.15.35-.15.42 0 .15.07.15.28 0 .46zm0 3l-.4.31.35.36.06.05a.28.28 0 0 1-.06.38v.05a.27.27 0 0 1-.37-.05l-.36-.36-.36.36v.05a.27.27 0 0 1-.37-.05l-.06-.06a.26.26 0 0 1 .06-.37l.35-.36-.41-.41a.27.27 0 0 1 .06-.37v-.06a.27.27 0 0 1 .37.06l.36.35.36-.35.05-.06a.27.27 0 0 1 .37.06c.15.07.15.28 0 .47zm2.88-2.3l-.41.41a.27.27 0 0 1-.37-.06h-.05a.26.26 0 0 1 .05-.37l.35-.36-.35-.36-.05-.05a.26.26 0 0 1 .05-.37l.05-.06a.28.28 0 0 1 .4.06l.35.35.36-.35v-.06a.28.28 0 0 1 .38.06v.05a.27.27 0 0 1 0 .37l-.36.36.43.36v.05a.27.27 0 0 1 0 .37l-.06.06a.27.27 0 0 1-.37-.06zm-.45 7.8c.1.177.1.393 0 .57a.56.56 0 0 1-.5.29h-4.85a2.38 2.38 0 0 1-2.35-2.36v-9.25a2.31 2.31 0 0 1 2.35-2.27h.34a.19.19 0 0 0 .16-.21v-.72a1 1 0 0 1 .93-.92h1.78a.94.94 0 0 1 .92.92v.77a.2.2 0 0 0 .22.16h2.4a.18.18 0 0 0 .16-.21v-.72a1.08 1.08 0 0 1 .93-1h1.74a.94.94 0 0 1 .92.93v.76a.19.19 0 0 0 .22.16h.35a2.37 2.37 0 0 1 2.35 2.35v3a.609.609 0 0 1-.28.5.8.8 0 0 1-.57 0 .64.64 0 0 1-.29-.5v-3a1.24 1.24 0 0 0-1.21-1.21H5.875a1.251 1.251 0 0 0-1.21 1.21v9.25a1.25 1.25 0 0 0 1.21 1.23h4.85a.707.707 0 0 1 .5.27zm-3.71-13.1h1.35v-.57c0-.07 0-.07-.07-.07h-1.21c-.07 0-.07 0-.07.07zm6.43 0h1.33v-.57c0-.07 0-.07-.07-.07h-1.21c-.07 0-.07 0-.07.07v.65zm6.53 10.6a4.56 4.56 0 0 1-.626 2.326c-1.775 3.028-6.163 2.999-7.898-.052-1.735-3.052.484-6.837 3.994-6.814a4.59 4.59 0 0 1 4.53 4.54zm-4.53-3.4a3.422 3.422 0 0 0-1.757.468c-2.272 1.33-2.253 4.62.034 5.924 2.288 1.303 5.128-.359 5.113-2.992a3.46 3.46 0 0 0-3.39-3.4zm2.15 4.76a.42.42 0 0 1 0 .57.44.44 0 0 1-.57 0l-1.85-1.85v-2.39a.34.34 0 0 1 .36-.32.33.33 0 0 1 .31.36v2z"/></svg>
